X:655
T: I WOASS A SCHOENI GLOCKN
N: E0604
O: Europa, Mitteleuropa, Deutschland, Ober - Bayern
R: Liebes - Lied
M: 3/4
L: 1/8
K: Bb
FE | DEFGAB | Gcc3
B | Agf2ec | BdF3
E | DBFdBf | gfed
cB | Agf2ec | B4

@@@ Tune index: 4305
